!!!COM:	Bach, Johann Sebastian
!!!CDT:	1685/02/21/-1750/07/28/
!!!OTL@@DE:	Kommt her zu mir, spricht
!!!SCT:	BWV 108/6
!!!PC#:	45
!!!AGN:	chorale
**kern	**kern	**kern	**kern
*ICvox	*ICvox	*ICvox	*ICvox
*Ibass	*Itenor	*Ialto	*Isoprn
*I"Bass	*I"Tenor	*I"Alto	*I"Soprano
*clefF4	*clefGv2	*clefG2	*clefG2
*k[f#c#]	*k[f#c#]	*k[f#c#]	*k[f#c#]
*b:	*b:	*b:	*b:
*M4/4	*M4/4	*M4/4	*M4/4
*met(c)	*met(c)	*met(c)	*met(c)
*MM100	*MM100	*MM100	*MM100
4BB	4d	4f#	4b
=1	=1	=1	=1
8EL	4e	4g	4b
8F#J	.	.	.
8GL	4e	4g	4b
8AJ	.	.	.
8BL	4d	8f#L	4ff#
8dJ	.	8g#J	.
8c#L	4gnX	8a#L	4ee
8BJ	.	8bJ	.
=2	=2	=2	=2
8A#L	4f#	4cc#	8ff#L
8F#J	.	.	8eeJ
4B	4f#	4b	4dd
4F#;	4f#;	4a#;	4cc#;
8DL	8f#L	8bL	8bL
8C#J	8eJ	8a#J	8cc#J
=3	=3	=3	=3
8BBL	4f#	4b	4dd
8BJ	.	.	.
8A#L	8f#L	4f#	4cc#
8F#J	8eJ	.	.
8BL	8dL	4f#	8ddL
8c#J	8c#J	.	8eeJ
8dL	8BL	4f#	4ff#
8BJ	8dJ	.	.
=4	=4	=4	=4
8G#L	8dL	8bL	4ee
8A#J	8c#J	8cc#J	.
8BL	8dL	8f#L	4dd
8BBJ	8BJ	8g#J	.
4F#;	4c#;	4a#;	4cc#;
4BB	8f#L	4b	8ddL
.	8eJ	.	8cc#J
=5	=5	=5	=5
8BL	8dL	4f#	4b
8AnX	8c#J	.	.
8G#	4B	8eL	4b
8F#J	.	8f#J	.
8EL	4B	2g#	4.ee
8D	.	.	.
8C#	8c#L	.	.
8BBJ	8dJ	.	8dd
=6	=6	=6	=6
8AAL	4e	4a	8cc#L
8C#J	.	.	16ddL
.	.	.	16eeJJ
8F#L	4A	4a	8ddL
8EJ	.	.	8cc#J
8DL	4f#	4a	2b
8BBJ	.	.	.
8EL	8eL	4g#	.
8EEJ	8dJ	.	.
=7	=7	=7	=7
4AA;	4c#;	4e;	4a;
8DL	8dL	4f#	4a
8C#J	8eJ	.	.
8BBL	4f#	4b	4dd
8B	.	.	.
8A#	4f#	8cc#L	4cc#
8F#J	.	8a#J	.
=8	=8	=8	=8
8BL	8f#L	4b	8ddL
8c#J	8eJ	.	8eeJ
8dL	4d	4b	4ff#
8BJ	.	.	.
8G#L	8dL	8bL	4ee
8A#J	8c#J	8cc#J	.
8BL	8c#L	4f#	4dd
8BBJ	8BJ	.	.
=9	=9	=9	=9
4F#;	4A#;	4f#;	4cc#;
8BL	8dL	4f#	8bL
8AJ	8c#J	.	8cc#J
8G#L	8BL	4e	4dd
8EJ	8G#J	.	.
8AL	4A	4e	4cc#
8GJ	.	.	.
=10	=10	=10	=10
8F#L	4A	8f#L	8ddL
8EJ	.	8gJ	8eeJ
8DL	4d	4a	4ff#
8C#J	.	.	.
8BBL	8dL	4g	4ee
8AA#J	8c#J	.	.
4BB	8c#L	4f#	4dd
.	8BJ	.	.
=11	=11	=11	=11
4F#;	4A#;	4f#;	4cc#;
4AA#X	4c#	8f#L	4ff#
.	.	8eJ	.
8BBL	4c#	8dL	4ff#
8C#J	.	8f#J	.
8DL	4B	8bL	4ff#
8D#J	.	8aJ	.
=12	=12	=12	=12
8EL	2B	8gL	4.ee
8F#J	.	8f#J	.
8GL	.	[4e	.
8G#J	.	.	8dd
8AnXL	8AnXL	4e]	4cc#
8A#J	8gJ	.	.
8BL	8f#L	8dL	8ddL
8GnXJ	8BJ	8gJ	8eeJ
=13	=13	=13	=13
8EL	4B	4g	2cc#
8C#J	.	.	.
4F#	4A#	8f#L	.
.	.	8eJ	.
4BB;	4F#;	4d#;	4b;
==	==	==	==
*-	*-	*-	*-
!!!hum2abc: -Q ''
!!!title: @{PC#}. @{OTL@@DE}
!!!YOR1: 371 vierstimmige Choralges&auml;nge von Johann Sebastian Bach, 
!!!YOR2: 4th ed. by Alfred D&ouml;rffel (Leipzig: Breitkopf und H&auml;rtel, 
!!!YOR2: c.1875). 178 pp. Plate "V.A.10".  reprint: J.S. Bach, 371 Four-Part 
!!!YOR4: Chorales (New York: Associated Music Publishers, Inc., c.1940).
!!!SMS: B&H, 4th ed, Alfred D&ouml;rffel, c.1875, plate V.A.10
!!!EED:  Craig Stuart Sapp
!!!EEV:  2009/05/22
